_includes/icons/join/tools.svg

<svg id="Layer_1" data-name="Layer 1" xmlns="http://www.w3.org/2000/svg" viewBox="0 0 65 52"><defs><style>.cls-1{fill:#609c70;}.cls-2{fill:none;stroke:#54565a;}</style></defs><path class="cls-1" d="M26.9053,27.55189a1.56254,1.56254,0,0,0,2.2099,0l1.1045-1.1045a1.56248,1.56248,0,0,0,0-2.21l-3.4883-3.4873,3.4874-3.4883a1.56254,1.56254,0,0,0,0-2.2099l-1.1045-1.1045a1.56248,1.56248,0,0,0-2.21,0l-5.6973,5.6972a1.56266,1.56266,0,0,0,0,2.21Zm9.3759-1.1036,1.1045,1.1045a1.56248,1.56248,0,0,0,2.21,0l5.6973-5.6972a1.56266,1.56266,0,0,0,0-2.21l-5.6973-5.6973a1.56266,1.56266,0,0,0-2.21,0l-1.1045,1.1045a1.56266,1.56266,0,0,0,0,2.21l3.4874,3.4873-3.4874,3.4883A1.56254,1.56254,0,0,0,36.2812,26.44829Zm26.6563,16.1768H39.2598a3.07856,3.07856,0,0,1-3.1973,3.125H30.125a3.31628,3.31628,0,0,1-3.2002-3.125H3.5625A1.56707,1.56707,0,0,0,2,44.18759v1.5625a6.26837,6.26837,0,0,0,6.25,6.25h50a6.26837,6.26837,0,0,0,6.25-6.25v-1.5625A1.56706,1.56706,0,0,0,62.9375,42.62509ZM58.25,6.68759a4.7013,4.7013,0,0,0-4.6875-4.6875H12.9375A4.7013,4.7013,0,0,0,8.25,6.68759v32.8125h50ZM52,33.25009H14.5v-25H52Z"/><path class="cls-2" d="M25.2588,25.19829h0L19.5606,19.501h0a1.06244,1.06244,0,0,1,0-1.5028l5.6973-5.6973a1.06244,1.06244,0,0,1,1.5028,0l1.1045,1.1045a1.06256,1.06256,0,0,1,0,1.5029h-.0001l-3.4873,3.4883-.3535.3536.3536.3535,3.4883,3.4873h0a1.06253,1.06253,0,0,1,0,1.5028l-1.1045,1.1045A1.06256,1.06256,0,0,1,25.2588,25.19829Zm12.8634-6.0947.3534-.3535-.3535-.3536-3.4873-3.4873a1.06244,1.06244,0,0,1,0-1.5028l1.1045-1.1045a1.06244,1.06244,0,0,1,1.5028,0l5.6973,5.6973a1.06244,1.06244,0,0,1,0,1.5028l-5.6973,5.6973a1.06244,1.06244,0,0,1-1.5028,0l-1.1045-1.1045a1.06256,1.06256,0,0,1,0-1.5029h.0001ZM50,31.75009h.5v-26H12v26H50Zm-48.4375,9.375H24.4634a3.7818,3.7818,0,0,0,1.0058,1.9394,3.68567,3.68567,0,0,0,2.6558,1.1856h5.9375a3.69584,3.69584,0,0,0,2.5754-.9738,3.62733,3.62733,0,0,0,1.0781-2.1512H60.9375A1.06715,1.06715,0,0,1,62,42.18759v1.5625a5.76833,5.76833,0,0,1-5.75,5.75h-50a5.76835,5.76835,0,0,1-5.75-5.75v-1.5625A1.06713,1.06713,0,0,1,1.5625,41.12509Zm50-40.625A4.20128,4.20128,0,0,1,55.75,4.68759v32.3125h-49V4.68759A4.20129,4.20129,0,0,1,10.9375.50009Z"/></svg>

<svg width="65" height="52" viewBox="0 0 65 52" fill="none" xmlns="http://www.w3.org/2000/svg">
<path d="M26.9053 27.5518C27.5156 28.1621 28.5049 28.1621 29.1152 27.5518L30.2197 26.4473C30.8301 25.8369 30.8301 24.8477 30.2197 24.2373L26.7314 20.75L30.2188 17.2617C30.8291 16.6514 30.8291 15.6621 30.2188 15.0518L29.1143 13.9473C28.5039 13.3369 27.5146 13.3369 26.9043 13.9473L21.207 19.6445C20.5967 20.2549 20.5967 21.2441 21.207 21.8545L26.9053 27.5518ZM36.2812 26.4482L37.3857 27.5527C37.9961 28.1631 38.9854 28.1631 39.5957 27.5527L45.293 21.8555C45.9033 21.2451 45.9033 20.2559 45.293 19.6455L39.5957 13.9482C38.9854 13.3379 37.9961 13.3379 37.3857 13.9482L36.2812 15.0527C35.6709 15.6631 35.6709 16.6523 36.2812 17.2627L39.7686 20.75L36.2812 24.2383C35.6709 24.8486 35.6709 25.8379 36.2812 26.4482ZM62.9375 42.625H39.2598C39.1875 44.5596 37.8232 45.75 36.0625 45.75H30.125C28.2998 45.75 26.9004 44.0439 26.9248 42.625H3.5625C2.70312 42.625 2 43.3281 2 44.1875V45.75C2 49.1875 4.8125 52 8.25 52H58.25C61.6875 52 64.5 49.1875 64.5 45.75V44.1875C64.5 43.3281 63.7969 42.625 62.9375 42.625ZM58.25 6.6875C58.25 4.10938 56.1406 2 53.5625 2H12.9375C10.3594 2 8.25 4.10938 8.25 6.6875V39.5H58.25V6.6875ZM52 33.25H14.5V8.25H52V33.25Z" fill="#80b690"/>
<path d="M25.2588 25.1982L25.2588 25.1982L19.5606 19.5009C19.5606 19.5009 19.5606 19.5009 19.5606 19.5009C19.1455 19.0858 19.1455 18.4132 19.5606 17.9981L25.2579 12.3008C25.6729 11.8857 26.3456 11.8857 26.7607 12.3008L27.8652 13.4053C28.2803 13.8204 28.2803 14.4931 27.8652 14.9082L27.8651 14.9082L24.3778 18.3965L24.0243 18.7501L24.3779 19.1036L27.8662 22.5909C27.8662 22.5909 27.8662 22.5909 27.8662 22.5909C28.2813 23.006 28.2812 23.6786 27.8662 24.0937L26.7617 25.1982C26.3466 25.6133 25.6739 25.6133 25.2588 25.1982ZM38.1222 19.1035L38.4756 18.75L38.1221 18.3964L34.6348 14.9091C34.2197 14.4941 34.2197 13.8214 34.6348 13.4063L35.7393 12.3018C36.1544 11.8867 36.8271 11.8867 37.2421 12.3018L42.9394 17.9991C43.3545 18.4142 43.3545 19.0868 42.9394 19.5019L37.2421 25.1992C36.8271 25.6143 36.1544 25.6143 35.7393 25.1992L34.6348 24.0947C34.2197 23.6796 34.2197 23.0069 34.6348 22.5918L34.6349 22.5918L38.1222 19.1035ZM50 31.75H50.5V31.25V6.25V5.75H50H12.5H12V6.25V31.25V31.75H12.5H50ZM1.5625 41.125H24.4634C24.5798 41.8265 24.9493 42.5183 25.4692 43.0644C26.1206 43.7486 27.0516 44.25 28.125 44.25H34.0625C35.057 44.25 35.9654 43.9124 36.6379 43.2762C37.21 42.7349 37.5894 41.9984 37.716 41.125H60.9375C61.5207 41.125 62 41.6043 62 42.1875V43.75C62 46.9114 59.4114 49.5 56.25 49.5H6.25C3.08864 49.5 0.5 46.9114 0.5 43.75V42.1875C0.5 41.6043 0.979267 41.125 1.5625 41.125ZM51.5625 0.5C53.8645 0.5 55.75 2.38552 55.75 4.6875V37H6.75V4.6875C6.75 2.38552 8.63552 0.5 10.9375 0.5H51.5625Z" stroke="#1c1d20"/>
</svg>
